X: 183
M: C|
L: 1/8
K: A
V: 1
e |\
|: e |\
afec fdec | afec dBBg | afec defa | efed cAA :|
V: 2 clef=bass middle=d
z |\
[a2c'2e'2][a2c'2e'2] [d'2a2][a2c'2e'2] | [a2c'2e'2][a2c'2e'2] [e2g2b2e'2][e2g2b2e'2] |\
[a2c'2e'2][a2c'2e'2] [d'2a2][a2c'2e'2] | cde2 a2A :|
|: z |\
a2[a2c'2e'2] [d'2a2][c'2a2] | a2[c'2a2] [e2g2b2e'2][e2g2b2e'2] |\
a2[c'2a2] f2d2 | cde2 a2A :|


